src/assets/img/svg/doodle10.svg

<svg width="47" height="47" viewBox="0 0 47 47" fill="none" xmlns="http://www.w3.org/2000/svg">
<g clip-path="url(#clip0_106_55)">
<path d="M27.3388 39.7724L6.8177 22.6384C3.43926 19.8042 2.9541 14.7377 5.78613 11.325C8.59772 7.91759 13.6428 7.46524 17.0416 10.2943L20.6092 13.2726L22.3168 8.95036C23.9477 4.83987 28.5942 2.82312 32.6934 4.4699C36.7927 6.11669 38.8062 10.7724 37.1753 14.8829L27.3592 39.7672L27.3388 39.7724Z" stroke="#FAB758" stroke-width="0.75" stroke-miterlimit="10"/>
<path d="M27.5889 40.7552C27.2617 40.8385 26.9141 40.7562 26.6637 40.5424L6.14264 23.4084C2.3502 20.231 1.80887 14.5168 4.99363 10.6939C6.52722 8.8508 8.69457 7.7006 11.0765 7.4782C13.4994 7.24538 15.8404 7.97318 17.7213 9.54439L20.1797 11.5878L21.3607 8.61717C22.2452 6.3628 23.973 4.59839 26.2068 3.62348C28.4048 2.67905 30.8583 2.65201 33.0868 3.53661C37.6921 5.37485 39.9662 10.6263 38.141 15.2562L28.325 40.1405C28.2074 40.4481 27.9415 40.6867 27.6144 40.77L27.5889 40.7552ZM10.1818 9.69246C8.77105 10.0519 7.51356 10.8421 6.56274 11.9814C4.09876 14.9586 4.50731 19.3825 7.47174 21.8737L26.8888 38.0929L36.1783 14.5601C37.5945 10.9742 35.8314 6.8741 32.2432 5.43883C30.5207 4.74568 28.6551 4.77247 26.9478 5.50645C25.2405 6.24043 23.9114 7.60424 23.2212 9.33924L21.5136 13.6615C21.2784 14.2767 20.3788 14.5059 19.8779 14.0782L16.3104 11.0999C14.8741 9.90665 13.0494 9.32498 11.2041 9.51744C10.8412 9.54582 10.4885 9.61432 10.1409 9.70288L10.1818 9.69246Z" fill="#FAB758" stroke="#FAB758" stroke-width="0.75" stroke-miterlimit="10"/>
</g>
<defs>
<clipPath id="clip0_106_55">
<rect width="38" height="38" fill="white" transform="translate(0 9.38184) rotate(-14.2931)"/>
</clipPath>
</defs>
</svg>

<svg width="47" height="47" viewBox="0 0 47 47" fill="none" xmlns="http://www.w3.org/2000/svg"><g clip-path="url(#clip0_106_55)" stroke="#FAB758" stroke-width=".75" stroke-miterlimit="10"><path d="M27.339 39.772L6.818 22.638c-3.379-2.834-3.864-7.9-1.032-11.313 2.812-3.407 7.857-3.86 11.256-1.03l3.567 2.978 1.708-4.323c1.63-4.11 6.277-6.127 10.376-4.48 4.1 1.647 6.113 6.302 4.482 10.413L27.36 39.767l-.02.005z"/><path d="M27.589 40.755a1.037 1.037 0 01-.925-.213L6.143 23.408c-3.793-3.177-4.334-8.891-1.15-12.714a8.97 8.97 0 016.083-3.216c2.423-.233 4.764.495 6.645 2.066l2.459 2.044 1.18-2.97c.885-2.255 2.613-4.02 4.847-4.995a8.97 8.97 0 016.88-.086c4.605 1.838 6.88 7.09 5.054 11.72L28.325 40.14a1.037 1.037 0 01-.71.629l-.026-.015zM10.182 9.692a6.924 6.924 0 00-3.62 2.29c-2.463 2.977-2.055 7.4.91 9.892l19.417 16.219 9.29-23.533c1.415-3.586-.348-7.686-3.936-9.121a6.818 6.818 0 00-5.295.067A6.943 6.943 0 0023.22 9.34l-1.707 4.322c-.236.616-1.135.845-1.636.417L16.31 11.1c-1.436-1.193-3.26-1.775-5.106-1.583a6.283 6.283 0 00-1.063.186l.04-.01z" fill="#FAB758"/></g><defs><clipPath id="clip0_106_55"><path fill="#fff" transform="rotate(-14.293 37.413 4.69)" d="M0 0h38v38H0z"/></clipPath></defs></svg>
